src/components/icon/youtube.svg

<?xml version="1.0" encoding="iso-8859-1"?>
<!-- Generator: Adobe Illustrator 19.0.0, SVG Export Plug-In . SVG Version: 6.00 Build 0)  -->
<svg version="1.1" id="Layer_1" xmlns="http://www.w3.org/2000/svg" xmlns:xlink="http://www.w3.org/1999/xlink" x="0px" y="0px"
	 viewBox="0 0 504 504" style="enable-background:new 0 0 504 504;" xml:space="preserve">
<g>
	<g>
		<polygon points="219.6,202.4 219.6,294.4 304.4,248.8 		"/>
	</g>
</g>
<g>
	<g>
		<path d="M377.6,0H126C56.8,0,0,56.8,0,126.4V378c0,69.2,56.8,126,126,126h251.6c69.6,0,126.4-56.8,126.4-126.4V126.4
			C504,56.8,447.2,0,377.6,0z M408,264.4c0,26.4-2.4,53.2-2.4,53.2s-2.8,22.4-12,32.4c-12,13.2-25.2,13.2-31.2,14
			c-44,3.2-110,3.6-110,3.6s-82-1.2-107.2-3.6c-6.8-1.2-22.8-0.8-34.8-14c-9.6-10-12-32.4-12-32.4S96,290.8,96,264.4v-24.8
			c0-26.4,2.4-53.2,2.4-53.2s2.8-22.4,12-32.4c12-13.2,25.2-13.6,31.2-14.4C186,136.4,252,136,252,136s66,0.4,110,3.6
			c6,0.8,19.6,1.2,31.6,14c9.6,10,12,32.8,12,32.8s2.4,26.8,2.4,53.2V264.4z"/>
	</g>
</g>
<g>
</g>
<g>
</g>
<g>
</g>
<g>
</g>
<g>
</g>
<g>
</g>
<g>
</g>
<g>
</g>
<g>
</g>
<g>
</g>
<g>
</g>
<g>
</g>
<g>
</g>
<g>
</g>
<g>
</g>
</svg>

<?xml version="1.0" encoding="UTF-8" standalone="no"?>
<!DOCTYPE svg PUBLIC "-//W3C//DTD SVG 1.1//EN" "http://www.w3.org/Graphics/SVG/1.1/DTD/svg11.dtd">
<svg width="100%" height="100%" viewBox="0 0 504 504" version="1.1" xmlns="http://www.w3.org/2000/svg" xmlns:xlink="http://www.w3.org/1999/xlink" xml:space="preserve" xmlns:serif="http://www.serif.com/" style="fill-rule:evenodd;clip-rule:evenodd;stroke-linejoin:round;stroke-miterlimit:2;">
    <path d="M219.6,202.4L219.6,294.4L304.4,248.8L219.6,202.4Z" style="fill:rgb(27,13,78);fill-rule:nonzero;"/>
    <path d="M377.6,0L126,0C56.8,0 0,56.8 0,126.4L0,378C0,447.2 56.8,504 126,504L377.6,504C447.2,504 504,447.2 504,377.6L504,126.4C504,56.8 447.2,0 377.6,0ZM408,264.4C408,290.8 405.6,317.6 405.6,317.6C405.6,317.6 402.8,340 393.6,350C381.6,363.2 368.4,363.2 362.4,364C318.4,367.2 252.4,367.6 252.4,367.6C252.4,367.6 170.4,366.4 145.2,364C138.4,362.8 122.4,363.2 110.4,350C100.8,340 98.4,317.6 98.4,317.6C98.4,317.6 96,290.8 96,264.4L96,239.6C96,213.2 98.4,186.4 98.4,186.4C98.4,186.4 101.2,164 110.4,154C122.4,140.8 135.6,140.4 141.6,139.6C186,136.4 252,136 252,136C252,136 318,136.4 362,139.6C368,140.4 381.6,140.8 393.6,153.6C403.2,163.6 405.6,186.4 405.6,186.4C405.6,186.4 408,213.2 408,239.6L408,264.4Z" style="fill:rgb(27,13,78);fill-rule:nonzero;"/>
</svg>
